Papirus/64x64/apps/soulseek.svg

<?xml version="1.0" encoding="UTF-8" standalone="no"?>
<svg
   id="_图层_1"
   version="1.1"
   viewBox="0 0 64 64" width="64" height="64"
   sodipodi:docname="soulseek.svg"
   xml:space="preserve"
   inkscape:version="1.4 (e7c3feb100, 2024-10-09)"
   xmlns:inkscape="http://www.inkscape.org/namespaces/inkscape"
   xmlns:sodipodi="http://sodipodi.sourceforge.net/DTD/sodipodi-0.dtd"
   xmlns="http://www.w3.org/2000/svg"
   xmlns:svg="http://www.w3.org/2000/svg"><sodipodi:namedview
     id="namedview26"
     pagecolor="#505050"
     bordercolor="#eeeeee"
     borderopacity="1"
     inkscape:showpageshadow="0"
     inkscape:pageopacity="0"
     inkscape:pagecheckerboard="0"
     inkscape:deskcolor="#505050"
     inkscape:zoom="8.453125"
     inkscape:cx="32"
     inkscape:cy="32"
     inkscape:window-width="1421"
     inkscape:window-height="796"
     inkscape:window-x="807"
     inkscape:window-y="109"
     inkscape:window-maximized="0"
     inkscape:current-layer="_图层_1" /><!-- Generator: Adobe Illustrator 29.0.1, SVG Export Plug-In . SVG Version: 2.1.0 Build 192)  --><defs
     id="defs6"><style
       id="style1">
      .st0 {
        fill-opacity: .5;
      }

      .st0, .st1, .st2, .st3, .st4, .st5, .st6, .st7 {
        fill: #fff;
      }

      .st8 {
        fill: #133c9a;
      }

      .st2, .st9 {
        display: none;
      }

      .st3 {
        fill-opacity: .2;
      }

      .st4 {
        fill-opacity: .9;
      }

      .st10 {
        fill: #3370ff;
      }

      .st11 {
        fill: url(#_未命名的渐变_3);
      }

      .st12 {
        fill: url(#_未命名的渐变);
      }

      .st5 {
        fill-opacity: .3;
      }

      .st6 {
        fill-opacity: 0;
      }

      .st7 {
        fill-opacity: .7;
      }

      .st13 {
        fill: #00d6b9;
      }

      .st14 {
        fill: url(#_未命名的渐变_2);
      }
    </style><radialGradient
       id="_未命名的渐变"
       data-name="未命名的渐变"
       cx="123.9"
       cy="-40.2"
       fx="123.9"
       fy="-40.2"
       r="59.4"
       gradientTransform="translate(-26.8 25.5) scale(.6 -.7)"
       gradientUnits="userSpaceOnUse"><stop
         offset="0"
         stop-color="#db202e"
         id="stop1" /><stop
         offset="1"
         stop-color="#e01b24"
         id="stop2" /></radialGradient><radialGradient
       id="_未命名的渐变_2"
       data-name="未命名的渐变 2"
       cx="67.6"
       cy="26.8"
       fx="67.6"
       fy="26.8"
       r="105.2"
       gradientTransform="translate(-26.6 25.3) scale(.6 -.7)"
       gradientUnits="userSpaceOnUse"><stop
         offset="0"
         stop-color="#ffb648"
         id="stop3" /><stop
         offset="1"
         stop-color="#ff7800"
         stop-opacity="0"
         id="stop4" /></radialGradient><radialGradient
       id="_未命名的渐变_3"
       data-name="未命名的渐变 3"
       cx="61.7"
       cy="18.6"
       fx="61.7"
       fy="18.6"
       r="68"
       gradientTransform="translate(-26.8 25.8) scale(.6 -.7)"
       gradientUnits="userSpaceOnUse"><stop
         offset="0"
         stop-color="#c64600"
         id="stop5" /><stop
         offset="1"
         stop-color="#a51d2d"
         id="stop6" /></radialGradient></defs><path
     class="st1"
     d="M47.5,64.1H13.8c-7.6,0-13.8-6.3-13.8-13.8V13.7C0,6.2,6.2,0,13.7,0h36.6c7.5,0,13.7,6.2,13.7,13.7v36.6c0,7.5-6.2,13.7-13.7,13.7h-2.9.1Z"
     id="path6"
     style="fill:#4f4f4f;fill-opacity:1" /><g
     id="g26"
     transform="matrix(1.1457618,0,0,1.1411292,-4.486929,-4.6135)"><path
       style="opacity:0.2"
       d="m 29.472868,51 c -0.813254,-0.22564 -1.905896,-0.633306 -2.609588,-2.126162 -0.966154,-2.049646 -0.96459,-2.006622 -0.11856,-3.258164 1.173328,-1.735792 3.290802,-4.823208 3.290802,-5.665762 0,-0.53112 -0.526582,-0.949776 -1.831042,-1.455756 -2.810528,-1.090168 -6.620188,-2.933212 -8.583908,-4.382166 -2.405172,-1.774684 -4.651519,-5.102696 -5.351252,-7.420576 -0.491937,-1.629552 -0.328316,-1.98152 0.642845,-1.382828 5.095759,2.925252 6.688193,3.383472 11.738217,3.841418 3.13759,-0.13658 5.586466,-1.991024 5.463618,-4.199354 -0.10044,-1.665802 -1.202336,-3.083032 -1.870352,-5.215378 -0.376724,-1.20251 -0.16722,-1.623845 -0.09848,-2.085633 0.04736,-0.318282 0.16874,-0.610618 0.269666,-0.649639 0.5562,0.314542 0.925446,0.861332 1.459646,1.072276 1.264028,0.49914 2.597022,0.505913 3.93954,1.094644 1.372604,0.701962 1.983562,1.406544 2.289136,2.663892 0.21944,0.902936 0.819724,1.51269 1.43972,2.117128 0.29383,0.286452 0.534248,0.59564 0.534248,0.68708 0,0.464942 -1.517378,0.378806 -2.764934,0.02616 -1.09688,-0.31004 -1.410904,1.07919 -1.29819,2.082824 0.1687,2.668396 3.643068,2.173896 6.618396,2.405992 2.481348,0.19356 6.713372,-0.13244 9.92894,-1.51351 0.67344,-0.28924 1.320834,-0.505678 1.438674,-0.480972 -1.096788,4.698594 -5.813932,8.69884 -9.890508,10.412728 -2.010866,0.812728 -4.91409,1.739856 -5.78611,1.847756 -2.168058,0.26827 -2.911306,0.552054 -3.261782,1.245388 -0.399516,0.790306 -0.98673,4.428624 -1.204456,7.1955 -0.520776,2.31526 -2.885314,3.12581 -4.384246,3.143094 z"
       id="path3" /><path
       style="fill:#4895fb"
       d="m 29.472868,50 c -0.813254,-0.22564 -1.905896,-0.633306 -2.609588,-2.126162 -0.966154,-2.049646 -0.96459,-2.006622 -0.11856,-3.258164 1.173328,-1.735792 3.290802,-4.823208 3.290802,-5.665762 0,-0.53112 -0.526582,-0.949776 -1.831042,-1.455756 -2.810528,-1.090168 -6.620188,-2.933212 -8.583908,-4.382166 -2.405172,-1.774684 -4.651519,-5.102696 -5.351252,-7.420576 -0.491937,-1.629552 -0.328316,-1.98152 0.642845,-1.382828 5.095759,2.925252 6.688193,3.383472 11.738217,3.841418 3.13759,-0.13658 5.586466,-1.991024 5.463618,-4.199354 -0.10044,-1.665802 -1.202336,-3.083032 -1.870352,-5.215377 -0.376724,-1.202511 -0.16722,-1.623846 -0.09848,-2.085634 0.04736,-0.318282 0.16874,-0.610618 0.269666,-0.649639 0.5562,0.314542 0.925446,0.861332 1.459646,1.072276 1.264028,0.49914 2.597022,0.505913 3.93954,1.094645 1.372604,0.70196 1.983562,1.406544 2.289136,2.663891 0.21944,0.902936 0.819724,1.51269 1.43972,2.117128 0.29383,0.286452 0.534248,0.59564 0.534248,0.68708 0,0.464942 -1.517378,0.378806 -2.764934,0.02616 -1.09688,-0.31004 -1.410904,1.07919 -1.29819,2.082824 0.1687,2.668396 3.643068,2.173896 6.618396,2.405992 2.481348,0.19356 6.713372,-0.13244 9.92894,-1.51351 0.67344,-0.28924 1.320834,-0.505678 1.438674,-0.480972 -1.096788,4.698594 -5.813932,8.69884 -9.890508,10.412728 -2.010866,0.812728 -4.91409,1.739856 -5.78611,1.847756 -2.168058,0.26827 -2.911306,0.552054 -3.261782,1.245388 -0.399516,0.790306 -0.98673,4.428624 -1.204456,7.1955 -0.520776,2.31526 -2.885314,3.12581 -4.384246,3.143094 z"
       id="path4" /><path
       style="opacity:0.1;fill:#ffffff"
       d="m 30.414062,16 c -0.100926,0.03902 -0.222171,0.332109 -0.269531,0.650391 -0.05291,0.35542 -0.182092,0.694855 -0.07031,1.376953 0.02449,-0.132255 0.05206,-0.254367 0.07031,-0.376953 0.04736,-0.318282 0.168605,-0.61137 0.269531,-0.650391 0.556201,0.314542 0.926738,0.861322 1.460938,1.072266 1.264028,0.49914 2.596935,0.505018 3.939453,1.09375 1.372604,0.70196 1.983489,1.406715 2.289063,2.664062 0.218736,0.900042 0.815714,1.508791 1.433593,2.111328 0.328808,-0.03495 0.539063,-0.133422 0.539063,-0.30664 0,-0.09144 -0.239373,-0.401048 -0.533203,-0.6875 C 38.922973,22.342828 38.322956,21.733014 38.103516,20.830078 37.797942,19.572731 37.187057,18.867976 35.814453,18.166016 34.471935,17.577284 33.139028,17.571406 31.875,17.072266 31.3408,16.861322 30.970263,16.314542 30.414062,16 Z m -16.082031,8.042969 c -0.344282,-0.06143 -0.384463,0.299519 -0.21289,1.042969 0.136425,-0.09963 0.39226,-0.02437 0.792968,0.222656 5.095759,2.925252 6.688258,3.383851 11.738282,3.841797 3.13759,-0.13658 5.585738,-1.990889 5.46289,-4.199219 -0.007,-0.116301 -0.02864,-0.229544 -0.04492,-0.34375 -0.340085,1.907919 -2.597897,3.42021 -5.417968,3.542969 -5.050024,-0.457946 -6.642523,-0.916545 -11.738282,-3.841797 -0.24279,-0.149673 -0.435855,-0.239893 -0.580078,-0.265625 z m 21.699219,1.820312 c -0.04239,0.294056 -0.04894,0.601598 -0.01758,0.88086 0.1687,2.668396 3.643813,2.174154 6.61914,2.40625 2.481348,0.19356 6.712167,-0.132602 9.927735,-1.513672 0.46018,-0.197646 0.840032,-0.328352 1.115234,-0.404297 C 53.802312,26.877359 53.914987,26.520443 54,26.15625 c -0.11784,-0.02471 -0.766013,0.191229 -1.439453,0.480469 -3.215568,1.38107 -7.446387,1.707232 -9.927735,1.513672 -2.927692,-0.22838 -6.332369,0.239891 -6.601562,-2.28711 z m -6.154297,13.644531 c -0.494761,1.228416 -2.142553,3.642458 -3.132812,5.107422 -0.574245,0.849487 -0.748255,1.114214 -0.50586,1.830078 0.101168,-0.224442 0.265242,-0.47413 0.50586,-0.830078 1.173328,-1.735792 3.291015,-4.823461 3.291015,-5.666015 0,-0.155989 -0.06099,-0.299758 -0.158203,-0.441407 z"
       id="path6-6" /></g></svg>

<svg xmlns="http://www.w3.org/2000/svg" width="64" height="64" version="1">
 <path style="opacity:0.2" d="M 32,5 C 16.488,5 4,17.488 4,33 4,48.512 16.488,61 32,61 47.512,61 60,48.512 60,33 60,17.488 47.512,5 32,5 Z"/>
 <path style="fill:#4f4f4f" d="M 32,4 C 16.488,4 4,16.488 4,32 4,47.512 16.488,60 32,60 47.512,60 60,47.512 60,32 60,16.488 47.512,4 32,4 Z"/>
 <path style="opacity:0.2" d="m 29.472868,51 c -0.813254,-0.22564 -1.905896,-0.633306 -2.609588,-2.126162 -0.966154,-2.049646 -0.96459,-2.006622 -0.11856,-3.258164 1.173328,-1.735792 3.290802,-4.823208 3.290802,-5.665762 0,-0.53112 -0.526582,-0.949776 -1.831042,-1.455756 -2.810528,-1.090168 -6.620188,-2.933212 -8.583908,-4.382166 -2.405172,-1.774684 -4.651519,-5.102696 -5.351252,-7.420576 -0.491937,-1.629552 -0.328316,-1.98152 0.642845,-1.382828 5.095759,2.925252 6.688193,3.383472 11.738217,3.841418 3.13759,-0.13658 5.586466,-1.991024 5.463618,-4.199354 -0.10044,-1.665802 -1.202336,-3.083032 -1.870352,-5.215378 -0.376724,-1.20251 -0.16722,-1.623845 -0.09848,-2.085633 0.04736,-0.318282 0.16874,-0.610618 0.269666,-0.649639 0.5562,0.314542 0.925446,0.861332 1.459646,1.072276 1.264028,0.49914 2.597022,0.505913 3.93954,1.094644 1.372604,0.701962 1.983562,1.406544 2.289136,2.663892 0.21944,0.902936 0.819724,1.51269 1.43972,2.117128 0.29383,0.286452 0.534248,0.59564 0.534248,0.68708 0,0.464942 -1.517378,0.378806 -2.764934,0.02616 -1.09688,-0.31004 -1.410904,1.07919 -1.29819,2.082824 0.1687,2.668396 3.643068,2.173896 6.618396,2.405992 2.481348,0.19356 6.713372,-0.13244 9.92894,-1.51351 0.67344,-0.28924 1.320834,-0.505678 1.438674,-0.480972 -1.096788,4.698594 -5.813932,8.69884 -9.890508,10.412728 -2.010866,0.812728 -4.91409,1.739856 -5.78611,1.847756 -2.168058,0.26827 -2.911306,0.552054 -3.261782,1.245388 -0.399516,0.790306 -0.98673,4.428624 -1.204456,7.1955 -0.520776,2.31526 -2.885314,3.12581 -4.384246,3.143094 z"/>
 <path style="fill:#4895fb" d="m 29.472868,50 c -0.813254,-0.22564 -1.905896,-0.633306 -2.609588,-2.126162 -0.966154,-2.049646 -0.96459,-2.006622 -0.11856,-3.258164 1.173328,-1.735792 3.290802,-4.823208 3.290802,-5.665762 0,-0.53112 -0.526582,-0.949776 -1.831042,-1.455756 -2.810528,-1.090168 -6.620188,-2.933212 -8.583908,-4.382166 -2.405172,-1.774684 -4.651519,-5.102696 -5.351252,-7.420576 -0.491937,-1.629552 -0.328316,-1.98152 0.642845,-1.382828 5.095759,2.925252 6.688193,3.383472 11.738217,3.841418 3.13759,-0.13658 5.586466,-1.991024 5.463618,-4.199354 -0.10044,-1.665802 -1.202336,-3.083032 -1.870352,-5.215377 -0.376724,-1.202511 -0.16722,-1.623846 -0.09848,-2.085634 0.04736,-0.318282 0.16874,-0.610618 0.269666,-0.649639 0.5562,0.314542 0.925446,0.861332 1.459646,1.072276 1.264028,0.49914 2.597022,0.505913 3.93954,1.094645 1.372604,0.70196 1.983562,1.406544 2.289136,2.663891 0.21944,0.902936 0.819724,1.51269 1.43972,2.117128 0.29383,0.286452 0.534248,0.59564 0.534248,0.68708 0,0.464942 -1.517378,0.378806 -2.764934,0.02616 -1.09688,-0.31004 -1.410904,1.07919 -1.29819,2.082824 0.1687,2.668396 3.643068,2.173896 6.618396,2.405992 2.481348,0.19356 6.713372,-0.13244 9.92894,-1.51351 0.67344,-0.28924 1.320834,-0.505678 1.438674,-0.480972 -1.096788,4.698594 -5.813932,8.69884 -9.890508,10.412728 -2.010866,0.812728 -4.91409,1.739856 -5.78611,1.847756 -2.168058,0.26827 -2.911306,0.552054 -3.261782,1.245388 -0.399516,0.790306 -0.98673,4.428624 -1.204456,7.1955 -0.520776,2.31526 -2.885314,3.12581 -4.384246,3.143094 z"/>
 <path style="opacity:0.1;fill:#ffffff" d="M 32 4 C 16.488 4 4 16.488 4 32 C 4 32.11345 4.0112805 32.224113 4.0175781 32.335938 C 4.3691213 17.134181 16.710728 5 32 5 C 47.289272 5 59.630879 17.134181 59.982422 32.335938 C 59.98872 32.224113 60 32.11345 60 32 C 60 16.488 47.512 4 32 4 z"/>
 <path style="fill:#ffffff;opacity:0.1" d="M 30.414062 16 C 30.313136 16.039021 30.191891 16.332109 30.144531 16.650391 C 30.091625 17.005811 29.962439 17.345246 30.074219 18.027344 C 30.098706 17.895089 30.126284 17.772977 30.144531 17.650391 C 30.191891 17.332109 30.313136 17.039021 30.414062 17 C 30.970263 17.314542 31.3408 17.861322 31.875 18.072266 C 33.139028 18.571406 34.471935 18.577284 35.814453 19.166016 C 37.187057 19.867976 37.797942 20.572731 38.103516 21.830078 C 38.322252 22.73012 38.91923 23.338869 39.537109 23.941406 C 39.865917 23.906452 40.076172 23.807984 40.076172 23.634766 C 40.076172 23.543326 39.836799 23.233718 39.542969 22.947266 C 38.922973 22.342828 38.322956 21.733014 38.103516 20.830078 C 37.797942 19.572731 37.187057 18.867976 35.814453 18.166016 C 34.471935 17.577284 33.139028 17.571406 31.875 17.072266 C 31.3408 16.861322 30.970263 16.314542 30.414062 16 z M 14.332031 24.042969 C 13.987749 23.981542 13.947568 24.342488 14.119141 25.085938 C 14.255566 24.986307 14.511401 25.061569 14.912109 25.308594 C 20.007868 28.233846 21.600367 28.692445 26.650391 29.150391 C 29.787981 29.013811 32.236129 27.159502 32.113281 24.951172 C 32.106269 24.834871 32.084646 24.721628 32.068359 24.607422 C 31.728274 26.515341 29.470462 28.027632 26.650391 28.150391 C 21.600367 27.692445 20.007868 27.233846 14.912109 24.308594 C 14.669319 24.158921 14.476254 24.068701 14.332031 24.042969 z M 36.03125 25.863281 C 35.988862 26.157337 35.982309 26.464879 36.013672 26.744141 C 36.182372 29.412537 39.657485 28.918295 42.632812 29.150391 C 45.11416 29.343951 49.344979 29.017789 52.560547 27.636719 C 53.020727 27.439073 53.400579 27.308367 53.675781 27.232422 C 53.802312 26.877359 53.914987 26.520443 54 26.15625 C 53.88216 26.131544 53.233987 26.347479 52.560547 26.636719 C 49.344979 28.017789 45.11416 28.343951 42.632812 28.150391 C 39.70512 27.922011 36.300443 28.390282 36.03125 25.863281 z M 29.876953 39.507812 C 29.382192 40.736228 27.7344 43.15027 26.744141 44.615234 C 26.169896 45.464721 25.995886 45.729448 26.238281 46.445312 C 26.339449 46.22087 26.503523 45.971182 26.744141 45.615234 C 27.917469 43.879442 30.035156 40.791773 30.035156 39.949219 C 30.035156 39.79323 29.974163 39.649461 29.876953 39.507812 z"/>
</svg>
